X:1
T:D Major Samuel Babcock, 1795
T:George Richards, 1792     86. 86. (C. M.)
T:Christmas
T:Transcribed from The Middlesex Harmony, 1795.
%%score [ 1 2 3 ]
L:1/8
Q:1/4=130
M:2/4
K:D
V:1 treble nm="Tr." snm="Tr."
V:2 treble-8 nm="T." snm="T."
V:3 bass nm="B." snm="B."
V:1
 A4- | A2 z2 | A3 d | c2 z f | ed cB | A4 | f2 z2 | d3 d | e2 d2 | c2 z d |: A3 A | d3 f | ed cB | %13
 A2 z d | d2 e2 | Ad c2 |1 d3 d :|2 d4 || z2 A2 | d3 G | A3 c | d2 d2 | d2 z e | fe dB | A2 ^G2 | %25
 A4- | A2 z d | B3 B | B2 z d | e2 ed | c2 z A | Ad BG | F2 E2 | D3 A | d3 d | d2 z d | B2 A^G | %37
 A2 z e | f2 ge | d2 c2 | d4- | d2 z f | d3 A | d3 d | A2 FE | F3 A/G/ | !wedge!F2 z2 | %47
 !wedge!B2 z2 | d2 AB | A2 z A | A2 c2 | d3 A | B2 A^G | A4 | d2 AA | A4 | d2 dc | B4 | B4- | B4 | %60
 A4- | A2 z2 | d2 BG | (A2 dB) | A4- | A4 | F4- | F4 |] %68
V:2
 d4- | d2 z2 | e3 f | e2 z f | gf ed | c4 | d2 z2 | B3 d | cB AG | A2 z A |: d3 e | f3 f | B2 ed | %13
w: Shout,||shout for|joy, re-|joice, * O *|earth;|Hail,|hail this|glo- * rious *|morn. Re-|joice, re-|joice in|Je- sus' *|
 c2 z A | B2 g2 | f2 e2 |1 d3 A :|2 d4 || z2 F2 | A3 B/c/ | d3 e | f2 f2 | f2 z c | de fd | c2 B2 | %25
w: birth, To-|day are|na- tions|born, Re–|born.|From|Zi- on's *|hill to|worlds a-|bove, Re-|ech- * * oed|back the|
 A4- | A2 z A | d3 d | d2 z d | B2 A^G | A2 z e | f2 ge | d2 c2 | d3 d | B3 B | B2 z d | e2 ed | %37
w: strain.~|_ And|gol- den|harps at-|tuned to *|love, Thus|swept E- *|phra- tha's|plain; And|gol- den|harps at-|tuned to *|
 c2 z A | Ad BG | F2 E2 | D4- | D2 z d | A3 d | A3 B/c/ | dA FA | d3 f/g/ | !wedge!a2 z2 | %47
w: love, Thus|swept * * E-|pha- thra's|plain;~|_ He|comes, he|comes, the *|Sa- * vior *|God, good *|will,|
 !wedge!g2 z2 | f2 df | e2 z f | d2 e2 | f3 f | gf ed | c4 | A2 dd | f4 | B2 Bc | d4 | e4- | e4 | %60
w: peace,|joy, for *|men, Glad|ti- dings|shout to|all * a- *|broad;|So be it,|Lord,|So be it,|Lord,|A-||
 c4- | c2 z2 | A2 Bc | (d2 f2) | e4- | e4 | d4- | d4 |] %68
w: men.~|_|So be it,|Lord,~ _|A-||men.~|_|
V:3
 D,4- | D,2 z2 | A,3 D | A,2 z D, | E,2 E,2 | A,,4 | D,2 z2 | G,3 B, | E,2 F,G, | A,2 z D, |: %10
 D,3 A, | D,3 D, | E,2 E,2 | A,2 z F, | G,2 E,2 | A,2 A,,2 |1 D,3 D, :|2 D,4 || z2 D,2 | D,2 D,2 | %20
 D,3 A, | D2 D2 | D2 A,2 | D,2 D,2 | E,2 E,2 | A,4- | A,2 z F, | G,3 G, | G,2 z B, | E,2 E,2 | %30
 A,2 z A, | D2 G,2 | A,2 A,,2 | D,3 F, | G,3 G, | G,2 z B, | E,2 E,2 | A,2 z A, | D3 G, | %39
 A,2 A,,2 | D,4- | D,2 z D, | D,2 D,2 | D,3 D, | F,2 A,2 | D,3 F,/E,/ | !wedge!D,2 z2 | %47
 !wedge!E,2 z2 | D,2 D,2 | A,,2 z D, | D,2 A,2 | D3 D | B,2 E,2 | A,4 | D,2 D,D, | D,4 | G,2 G,G, | %57
 G,4 | E,4- | E,4 | A,4- | A,2 z2 | D,2 G,E, | (F,2 D,2) | A,,4- | A,,4 | D,4- | D,4 |] %68

